src/assets/facebook.svg

<svg width="32" height="32" viewBox="0 0 32 32" fill="none" xmlns="http://www.w3.org/2000/svg">
<rect width="32" height="32" rx="8" fill="#424245"/>
<path d="M19.4103 17.4903L19.8767 14.4369H16.9589V12.4563C16.9589 11.6208 17.3657 10.8058 18.6726 10.8058H20V8.20631C20 8.20631 18.7959 8 17.6452 8C15.2411 8 13.6712 9.46273 13.6712 12.1097V14.4369H11V17.4903H13.6712V24.8721C14.2075 24.9567 14.7562 25 15.3151 25C15.874 25 16.4226 24.9567 16.9589 24.8721V17.4903H19.4103Z" fill="#CDCDCD"/>
</svg>

<svg fill="none" xmlns="http://www.w3.org/2000/svg" viewBox="0 0 32 32"><rect width="32" height="32" rx="8" fill="#424245"/><path d="m19.41 17.49.467-3.053h-2.918v-1.98c0-.836.407-1.651 1.714-1.651H20v-2.6S18.796 8 17.645 8c-2.404 0-3.974 1.463-3.974 4.11v2.327H11v3.053h2.671v7.382a10.541 10.541 0 0 0 3.288 0V17.49h2.451Z" fill="#CDCDCD"/></svg>
